X: 28339
T: Muiñeira Da Camposa
R: jig
M: 6/8
K: Amajor
|:efe|cAc BcB|Ace agf|gfe dcB|cBA efe|
cAc BcB|Ace agf|gfe dcB|A3:|
AdB|c2A AdB|c2A AdB|cAB GAB|cBA AdB|
c2A AdB|c2A AdB|cAB GBG|A3 AdB|
cAB GdB|cAB GdB|cAB GAB|cBA AdB|
cAB GdB|cAB GdB|cAB GBG|A3||

